server/public/assets/wheelShadow.svg

<svg xmlns="http://www.w3.org/2000/svg" viewBox="0 0 527.37 545.63"><defs><style>.cls-1{fill:#000;opacity:.2}</style></defs><title>wheel</title><path class="cls-1" d="M508.4 259.68h-54.22a189.16 189.16 0 0 0-44.42-110.81l38-38a14.39 14.39 0 0 0-20.36-20.36l-37.78 37.79a189.17 189.17 0 0 0-110.29-46.8V28.11a14.39 14.39 0 0 0-14.39-14.39 14.39 14.39 0 0 0-14.39 14.39v53.21a189.17 189.17 0 0 0-110.9 45.33l-37.94-37.93a14.39 14.39 0 0 0-20.36 20.36L119.24 147a189.17 189.17 0 0 0-45.89 110.17H19a14.39 14.39 0 0 0-14.42 14.39A14.39 14.39 0 0 0 19 286h54.32a189.17 189.17 0 0 0 45.27 109.83l-39 39a14.39 14.39 0 0 0 20.36 20.36l39-39A189.15 189.15 0 0 0 248 462v57.11a12.83 12.83 0 0 0 12.83 12.83H264a12.83 12.83 0 0 0 12.83-12.83v-56.94a189.19 189.19 0 0 0 111.53-45.87l37.3 40.62A14.39 14.39 0 1 0 446 436.56l-37.34-40.65a189.13 189.13 0 0 0 45.16-107.44h54.58a14.39 14.39 0 1 0 0-28.79zm-79.33 0h-69.12a96.77 96.77 0 0 0-17.73-43.26l49.69-49.69a165 165 0 0 1 37.16 92.95zM371.8 146.12L322 195.94a96.8 96.8 0 0 0-42.64-18.13v-71.14a165.14 165.14 0 0 1 92.44 39.45zm-121.25-39.68v71a96.75 96.75 0 0 0-43.1 17l-50-50a165.07 165.07 0 0 1 93.1-38zm-113.47 58.35l49.6 49.6a96.83 96.83 0 0 0-18.85 42.78H98.51a165.1 165.1 0 0 1 38.57-92.38zM98.48 286h68.66a96.75 96.75 0 0 0 17.14 44.13l-47.85 47.85A165.08 165.08 0 0 1 98.48 286zm58.25 112.4l47.49-47.5a96.82 96.82 0 0 0 43.81 19v66.94a165.1 165.1 0 0 1-91.3-38.49zm120.1 38.6v-66.74a96.87 96.87 0 0 0 49.26-21.76l45.25 49.27A165.11 165.11 0 0 1 276.83 437zm114.7-59.81l-46.26-50.37a96.7 96.7 0 0 0 14.61-38.4h68.78a165.09 165.09 0 0 1-37.13 88.82z" id="Mixed_Grit_Halftone_2" data-name="Mixed Grit Halftone 2"/></svg>

<svg xmlns="http://www.w3.org/2000/svg" viewBox="0 0 527.37 545.63"><defs><style>.cls-1{fill:#000;opacity:0.2;}</style></defs><title>wheel</title><g id="Mixed_Grit_Halftone_2" data-name="Mixed Grit Halftone 2"><path class="cls-1" d="M508.4,259.68H454.18a189.16,189.16,0,0,0-44.42-110.81l38-38a14.39,14.39,0,0,0-20.36-20.36L389.62,128.3A189.17,189.17,0,0,0,279.33,81.5V28.11a14.39,14.39,0,0,0-14.39-14.39h0a14.39,14.39,0,0,0-14.39,14.39V81.32a189.17,189.17,0,0,0-110.9,45.33L101.71,88.72a14.39,14.39,0,0,0-20.36,20.36L119.24,147A189.17,189.17,0,0,0,73.35,257.17H19A14.39,14.39,0,0,0,4.58,271.56h0A14.39,14.39,0,0,0,19,286H73.32a189.17,189.17,0,0,0,45.27,109.83l-39,39a14.39,14.39,0,0,0,20.36,20.36l39-39A189.15,189.15,0,0,0,248,462v57.11a12.83,12.83,0,0,0,12.83,12.83H264a12.83,12.83,0,0,0,12.83-12.83V462.17A189.19,189.19,0,0,0,388.36,416.3l37.3,40.62A14.39,14.39,0,1,0,446,436.56l-37.34-40.65a189.13,189.13,0,0,0,45.16-107.44H508.4a14.39,14.39,0,1,0,0-28.79Zm-79.33,0H359.95a96.77,96.77,0,0,0-17.73-43.26l49.69-49.69A165,165,0,0,1,429.07,259.68ZM371.8,146.12,322,195.94a96.8,96.8,0,0,0-42.64-18.13V106.67A165.14,165.14,0,0,1,371.8,146.12ZM250.55,106.44v71a96.75,96.75,0,0,0-43.1,17l-50-50A165.07,165.07,0,0,1,250.55,106.44ZM137.08,164.79l49.6,49.6a96.83,96.83,0,0,0-18.85,42.78H98.51A165.1,165.1,0,0,1,137.08,164.79ZM98.48,286h68.66a96.75,96.75,0,0,0,17.14,44.13l-47.85,47.85A165.08,165.08,0,0,1,98.48,286Zm58.25,112.4,47.49-47.5a96.82,96.82,0,0,0,43.81,19v66.94A165.1,165.1,0,0,1,156.73,398.35ZM276.83,437V370.26a96.87,96.87,0,0,0,49.26-21.76l45.25,49.27A165.11,165.11,0,0,1,276.83,437Zm114.7-59.81-46.26-50.37a96.7,96.7,0,0,0,14.61-38.4h68.78A165.09,165.09,0,0,1,391.53,377.24Z"/></g></svg>
